X: 39794
T: Thatcher's Mallet, The
R: reel
M: 4/4
K: Gmajor
A|BAGB ABcA|d^cde fdA=c|BG~G2 ABcA|G2AG FDD2|
B2Gc ABcA|d3e fdAc|B2Gc ABcA|dcAF G3||
g|f2de fgaf|g2bg afd2|f2de fgaf|bgef gfga|
bg~g2 afde|fgaf gfdc|B3G ABcA|dcAF G3||

